www/assets/icons/layers_clear.svg

<svg width="24" height="24" viewBox="0 0 24 24" xmlns="http://www.w3.org/2000/svg" fill='currentColor'><path d="M19.81 15.9551L21 15.0351L19.57 13.6051L18.38 14.5251L19.81 15.9551ZM19.36 11.2351L21 9.96509L12 2.96509L9.09 5.23509L16.96 13.1151L19.36 11.2351ZM3.27 1.96509L2 3.23509L6.22 7.45509L3 9.96509L4.63 11.2351L12 16.9651L14.1 15.3351L15.53 16.7651L12 19.5051L4.63 13.7751L3 15.0351L12 22.0351L16.95 18.1851L20.73 21.9651L22 20.6951L3.27 1.96509Z"/></svg>

<svg xmlns="http://www.w3.org/2000/svg" width="24" height="24" viewBox="0 0 24 24" fill='currentColor'><path d="m19.81 15.955 1.19-.92-1.43-1.43-1.19.92zm-.45-4.72L21 9.965l-9-7-2.91 2.27 7.87 7.88zM3.27 1.965 2 3.235l4.22 4.22L3 9.965l1.63 1.27 7.37 5.73 2.1-1.63 1.43 1.43-3.53 2.74-7.37-5.73L3 15.035l9 7 4.95-3.85 3.78 3.78 1.27-1.27z"/></svg>
